X:105
T:105 Untitled Waltz (Michael Turner's Waltz)
C:Michael Turner's MS 
N:According to Dan Quinn, originally a German Dance by Mozart
I:abc2nwc
M:3/4
L:1/8
K:G
GA|B2BDcD|d2d2gf|e2e2ge|d2d2GA|B2BDcD|d2d2cA|G2G2AB|G2z2GA|
B2BDcD|d2d2gf|e2e2ge|d2d2GA|B2BDcD|d2d2cA|G2G2AB|G2z2||
AB|c2cdBc|A2A2Bc|d2decd|B2B2gf|e2e2ge|d2d2GA|B2BcAB|G2z2AB|
c2cdBc|A2A2Bc|d2decd|B2B2gf|e2e2ge|d2d2GA|B2BcAB|G2z2|]

